src/assets/camera-icon.svg

<svg width="245" height="202" viewBox="0 0 245 202" fill="none" xmlns="http://www.w3.org/2000/svg">
<path d="M222.826 201.8H21.6636C9.8002 201.8 0 192 0 180.136V50.6705C0 38.8071 9.8002 29.0069 21.6636 29.0069H64.9908C66.0224 29.0069 68.6014 27.4595 69.1172 26.4279L76.8542 10.4381C79.949 4.76427 87.1702 0.12207 93.8756 0.12207H151.129C157.835 0.12207 165.056 4.76427 168.151 10.4381L175.888 26.4279C176.404 27.4595 178.467 29.0069 180.014 29.0069H223.341C235.205 29.0069 245.005 38.8071 245.005 50.6705V180.136C244.489 192 234.689 201.8 222.826 201.8ZM21.6636 43.9651C17.5372 43.9651 14.4424 47.0599 14.4424 51.1863V180.652C14.4424 184.779 17.5372 187.873 21.6636 187.873H222.826C226.952 187.873 230.047 184.779 230.047 180.652V51.1863C230.047 47.0599 226.952 43.9651 222.826 43.9651H179.498C172.793 43.9651 165.572 39.3229 162.477 33.6491L154.74 17.6593C154.224 16.6277 152.161 15.0803 150.614 15.0803H93.3598C92.3282 15.0803 89.7492 16.6277 89.2334 17.6593L81.4964 33.6491C78.4016 39.3229 71.1804 43.9651 64.475 43.9651H21.6636Z" fill="#024EC9"/>
<path d="M122.245 172.915C86.6544 172.915 57.7696 144.03 57.7696 108.44C57.7696 72.8497 86.6544 43.9649 122.245 43.9649C157.835 43.9649 186.72 72.8497 186.72 108.44C186.72 144.03 157.835 172.915 122.245 172.915ZM122.245 57.8915C94.3914 57.8915 71.6962 80.5867 71.6962 108.44C71.6962 136.293 94.3914 158.988 122.245 158.988C150.098 158.988 172.793 136.293 172.793 108.44C172.793 80.5867 150.098 57.8915 122.245 57.8915ZM201.162 57.8915C201.162 62.0179 198.067 65.1127 193.941 65.1127C189.814 65.1127 186.72 62.0179 186.72 57.8915C186.72 53.7651 189.814 50.6703 193.941 50.6703C198.067 50.6703 201.162 54.2809 201.162 57.8915ZM28.8848 15.0801H57.7696V22.3013H28.8848V15.0801Z" fill="#024EC9"/>
<path d="M122.245 79.5552V72.334C102.644 72.334 86.1387 88.3238 86.1387 108.44H93.3599C93.3599 92.4502 106.255 79.5552 122.245 79.5552Z" fill="#024EC9"/>
</svg>

<svg width="245" height="202" fill="none" xmlns="http://www.w3.org/2000/svg"><path d="M222.826 201.8H21.664C9.8 201.8 0 192 0 180.136V50.671c0-11.864 9.8-21.664 21.664-21.664H64.99c1.031 0 3.61-1.548 4.126-2.58l7.737-15.989C79.95 4.764 87.17.122 93.876.122h57.253c6.706 0 13.927 4.642 17.022 10.316l7.737 15.99c.516 1.031 2.579 2.579 4.126 2.579h43.327c11.864 0 21.664 9.8 21.664 21.663v129.466C244.489 192 234.689 201.8 222.826 201.8zM21.664 43.965c-4.127 0-7.222 3.095-7.222 7.221v129.466c0 4.127 3.095 7.221 7.222 7.221h201.162c4.126 0 7.221-3.094 7.221-7.221V51.186c0-4.126-3.095-7.22-7.221-7.22h-43.328c-6.705 0-13.926-4.643-17.021-10.317l-7.737-15.99c-.516-1.031-2.579-2.579-4.126-2.579H93.36c-1.032 0-3.61 1.548-4.127 2.58l-7.737 15.99c-3.094 5.673-10.316 10.315-17.021 10.315H21.664z" fill="#024EC9"/><path d="M122.245 172.915c-35.59 0-64.475-28.885-64.475-64.475 0-35.59 28.884-64.475 64.475-64.475 35.59 0 64.475 28.885 64.475 64.475 0 35.59-28.885 64.475-64.475 64.475zm0-115.023c-27.854 0-50.549 22.695-50.549 50.548s22.695 50.548 50.549 50.548c27.853 0 50.548-22.695 50.548-50.548s-22.695-50.548-50.548-50.548zm78.917 0c0 4.126-3.095 7.22-7.221 7.22-4.127 0-7.221-3.094-7.221-7.22 0-4.127 3.094-7.222 7.221-7.222 4.126 0 7.221 3.61 7.221 7.221zM28.885 15.08H57.77v7.221H28.885v-7.22z" fill="#024EC9"/><path d="M122.245 79.555v-7.221c-19.601 0-36.106 15.99-36.106 36.106h7.22c0-15.99 12.896-28.885 28.886-28.885z" fill="#024EC9"/></svg>
